X: 3
P: No. III.
M: C|
L: 1/8
K: G
V: 1
e2 |\
d2(cB) (cB)(AG) | E2(.G2 .G2)e2 | d2cB cBAG | e2(.A2 .A2)Bc |\
(dB)(de) d2ef | g2fe d2BA | (BA)GE (AG)ED | E2(.G2 .G2) :|
|: Bc |\
dBde dBAG | E2(.G2 .G2)Bc | (dB)(de) d2Bd | e2(ef) e2{ef}g2 |\
babg agaf | gfgd edcB | cBcd efgf | edeB TA4 |\
V: 2 clef=bass middle=d
z2 |\
g2z2 g2z2 | z2(.G2 .G2)z2 | g2z2 g2z2 | z2(.d2 .d2)z2 |\
|: z2 |\
z2g2 f2d2 | g2c'2 b2g2 | c'2z2 g2G2 | c6 z2 |
g2z2 d2z2 | g2z2 G2z2 | c2z2 c2z2 | f2g2 f2d2 |\

